X: 10
T: Drag Her Round The Road
R: reel
M: 4/4
L: 1/8
K: Emin
|B~E3 E2DE|GE~D2 Dd|B~E3 B~E3|GABG ~A2GA|
B~E3 E2DE|GE~D2 D2GA|B~E3 E2DE|GABG ~A2G2|
G2GF GBdB|cBAB cded|BGAF GBdg|ecAF GFED|
G2GF GBdB|cBAB cded | BGAF G2Bd | eaaf ~g2GA |


Tune 1148	Setting 1148

